X: 41278
T: Tullagh, The
R: reel
M: 4/4
K: Adorian
AE E2 cABG|(3EFG DB, G,2 DB,|A,3 B, A,3 z|AcBG ABcB|
AE E2 cABG|(3EFG DB, G,2 DB,|A,3B, A,B,CE|AcBG ABcd|
ea a2 agef|(3gfe af gedB|A2 (3aaa agef|gedB BA A2|
ea a2 agef|(3gfe af gedB|(3cBA BG Aaaf|gedB (3cBA BG|

